lib/brands/icons/jquery-mobile.svg

<svg xmlns="http://www.w3.org/2000/svg" fill="none" aria-hidden="true" viewBox="0 0 48 48"><g id="jquery-mobile-Icon"><g id="Group"><path id="Vector" fill="#0481A3" d="M10.8287 10.5729H36.6266C37.1913 10.5729 37.6102 11.0966 37.4863 11.6476L33.8503 27.8093C33.7241 28.3704 33.2258 28.7691 32.6508 28.7691H6.98525C6.35497 28.7691 5.88698 28.1853 6.02394 27.5701L9.58808 11.5676C9.71759 10.9864 10.2333 10.5729 10.8287 10.5729Z"/><path id="Vector_2" fill="#14BEF0" d="M22.1272 14.9736H41.3152C41.7533 14.9736 42.0786 15.3797 41.983 15.8072L38.7589 30.2244C38.6467 30.7256 38.2019 31.0819 37.6883 31.0819H18.442C18.0457 31.0819 17.7516 30.7146 17.8386 30.3279L21.103 15.7933C21.2106 15.3141 21.6361 14.9736 22.1272 14.9736Z"/><path id="Vector_3" fill="#73D8F4" d="M22.1271 14.9736C21.636 14.9736 21.2105 15.3141 21.1029 15.7933L18.1885 28.769H32.6505C33.2255 28.769 33.7239 28.3705 33.85 27.8094L36.7377 14.9736H22.1271Z"/><path id="Vector_4" fill="#6ABA2F" d="M15.8594 19.7835H24.642C25.1166 19.7835 25.4679 20.2251 25.3612 20.6876L21.679 36.6376C21.5723 37.0996 21.1608 37.427 20.6866 37.427H11.7701C11.3423 37.427 11.0249 37.03 11.1192 36.6127L14.7149 20.6983C14.8358 20.1634 15.311 19.7835 15.8594 19.7835Z"/><path id="Vector_5" fill="#B8EC00" d="M17.8385 30.3279C17.7516 30.7146 18.0458 31.082 18.4421 31.082H22.9615L23.4955 28.769H18.1887L17.8385 30.3279Z"/><path id="Vector_6" fill="white" d="M24.6417 19.7835H20.2066L18.1885 28.769H23.4952L25.3609 20.6876C25.4678 20.2251 25.1165 19.7835 24.6417 19.7835Z"/><path id="Vector_7" fill="#81D958" d="M15.8596 19.7835C15.3112 19.7835 14.836 20.1634 14.7151 20.6983L12.8916 28.769H18.1889L20.207 19.7835H15.8596Z"/></g></g></svg>

<svg xmlns="http://www.w3.org/2000/svg" fill="none" aria-hidden="true" viewBox="0 0 48 48"><path fill="#0481A3" d="M10.829 10.573h25.798c.564 0 .983.524.86 1.075L33.85 27.809a1.23 1.23 0 0 1-1.2.96H6.986a.985.985 0 0 1-.961-1.199l3.564-16.002a1.27 1.27 0 0 1 1.24-.995Z"/><path fill="#14BEF0" d="M22.127 14.974h19.188c.438 0 .764.406.668.833l-3.224 14.417a1.097 1.097 0 0 1-1.07.858H18.441a.618.618 0 0 1-.603-.754l3.264-14.535a1.05 1.05 0 0 1 1.024-.82Z"/><path fill="#73D8F4" d="M22.127 14.974c-.491 0-.916.34-1.024.82l-2.915 12.975h14.463a1.23 1.23 0 0 0 1.199-.96l2.888-12.835h-14.61Z"/><path fill="#6ABA2F" d="M15.86 19.784h8.782c.475 0 .826.441.72.904l-3.683 15.95a1.018 1.018 0 0 1-.992.789H11.77a.667.667 0 0 1-.65-.814l3.595-15.915c.12-.535.596-.915 1.144-.915Z"/><path fill="#B8EC00" d="M17.838 30.328a.619.619 0 0 0 .604.754h4.52l.534-2.313h-5.307l-.35 1.559Z"/><path fill="#fff" d="M24.642 19.784h-4.435l-2.018 8.985h5.306l1.866-8.081a.738.738 0 0 0-.72-.904Z"/><path fill="#81D958" d="M15.86 19.784c-.549 0-1.024.38-1.145.914l-1.823 8.071h5.297l2.018-8.985H15.86Z"/></svg>
